src/images/icons/facebook-icon.svg

<svg fill="none" height="28" viewBox="0 0 28 28" width="28" xmlns="http://www.w3.org/2000/svg"><path d="m28 14c0-7.73281-6.2672-14-14-14-7.73281 0-14 6.26719-14 14 0 7.7328 6.26719 14 14 14 .082 0 .1641 0 .2461-.0055v-10.8937h-3.0078v-3.5055h3.0078v-2.5812c0-2.99144 1.8266-4.62113 4.4953-4.62113 1.2797 0 2.3789.09297 2.6961.13672v3.12812h-1.8375c-1.4492 0-1.7336.68909-1.7336 1.70079v2.2312h3.4727l-.4539 3.5055h-3.0188v10.3633c5.8516-1.6789 10.1336-7.0656 10.1336-13.4586z" fill="#000"/></svg>

<svg width="28" height="28" viewBox="0 0 28 28" fill="none" xmlns="http://www.w3.org/2000/svg">
<path d="M28 14C28 6.26719 21.7328 0 14 0C6.26719 0 0 6.26719 0 14C0 21.7328 6.26719 28 14 28C14.082 28 14.1641 28 14.2461 27.9945V17.1008H11.2383V13.5953H14.2461V11.0141C14.2461 8.02266 16.0727 6.39297 18.7414 6.39297C20.0211 6.39297 21.1203 6.48594 21.4375 6.52969V9.65781H19.6C18.1508 9.65781 17.8664 10.3469 17.8664 11.3586V13.5898H21.3391L20.8852 17.0953H17.8664V27.4586C23.718 25.7797 28 20.393 28 14V14Z" fill="black"/>
</svg>
